!!!OTL: Dao chun lai
!!!ARE: Asia, China,ÿJiangsu, Taixing
!! III, 508
!!!SCT: C1594
!!!YEM: Copyright 1995, estate of Helmut Schaffrath.
**kern
*ICvox
*Ivox
*M2/4
*k[]
*C:
{8cc
8ee
16dd
16ee
16cc
16cc
=1
16cc
16a
4.g
=2
8cc
8ee
16dd
16ee
16cc
16cc
=3
16cc
16a
4.g}
=4
{8dd
16ee
16dd
4cc
=5
8dd
16ee
16gg
4dd
=6
16dd
16a
16b
16dd
16a
16g
8f#
=7
2g}
=8
{8cc
16cc
16ee
16dd
16ee
8cc
=9
16cc
16a
16g
16r
16a
16cc
16a
16cc
=10
16a
16cc
16a
16cc
16a
16cc
16a
16cc
=11
16a
16cc
8e
8r
16d
16e
=12
8g
16a
16cc
8e
8d
=13
4c}
{16a
16cc
16a
16cc
=14
16a
16cc
16a
16cc
16a
16cc
16a
16cc
=15
16a
16cc
8e
8r
16d
16e
=16
8g
16a
16cc
8e
8d
=17
2c}
==
!!!AGN: Wuge, Huagu
!!!AMT: simple duple
!!!AIN: vox
!!!EED: Helmut Schaffrath
!!!EEV: 1.0
*-
